X:931
T:Starry Lane to Monaghan, The
T:Ginley's
R:reel
C:Ed Reavy
Z:id:hn-reel-931
M:C|
L:1/8
K:Edor
GEBE eEBE | GFGB AFDF | GEB,E GABd | (3efg fg edcd |
BEEF G3G | GFGB AFDF | G2BG FGAF |1 EFGA BEEF :|2 EFGA BEE2 ||
|: gbef gbeg | fddc defa | gbef g2fe | defd Beef |
geBA ^GABd | cdeg fdef | gbeg f2fe |1 dBAF E2ef :|2 dBAF E2EF ||

